X: 33
T:John Ryan's Polka
M:2/4
L:1/16
R:Polka
K:D
S:https://tunearch.org/wiki/John_Ryan%27s_Polka
|:d2d2 BcdB|A2F2 A2F2|d2d2 BcdB|A2F2 E2D2|
d2d2 BcdB|A2F2 A2 de|f2d2 e2c2|d4 d4:|
|:f2d2 d2 ef|g2f2 e2 de|f2d2 a2d2|fedf abag|
f2d2 d2 ef|g2f2 e2 de|f2d2 e2c2|d4 d4:|]

